brandFactory_export/3.Masa/Documento_Archivo_3Masa.svg

<?xml version="1.0" encoding="UTF-8"?>
<svg width="24px" height="24px" viewBox="0 0 24 24" version="1.1" xmlns="http://www.w3.org/2000/svg" xmlns:xlink="http://www.w3.org/1999/xlink">
    <title>3.Masa/Documento_Archivo_3Masa</title>
    <g id="Symbols" stroke="none" stroke-width="1" fill="none" fill-rule="evenodd">
        <g id="3.Masa/Documento_Archivo_3Masa" fill="#5CB615" fill-rule="nonzero">
            <path d="M17.2117647,0.0302521008 C17.4907563,0.0302521008 17.7495798,0.137815126 17.9512605,0.329411765 L24.307563,6.48067227 C24.4386555,6.61176471 24.5159664,6.77310924 24.5663866,6.94453782 C24.6033613,7.03193277 24.6235294,7.12941176 24.6235294,7.2302521 L24.6235294,21.9966387 C24.6235294,22.897479 23.8504202,23.6571429 22.9327731,23.6571429 L8.31428571,23.6571429 C7.41344538,23.6571429 6.62352941,22.8806723 6.62352941,21.9966387 L6.66386555,18.6689076 L3.90420168,18.6689076 C2.30420168,18.6689076 1,17.3613445 1,15.7579832 L1,10.8470588 C1,9.24369748 2.30420168,7.93613445 3.90420168,7.93613445 L6.62352941,7.93613445 L6.62352941,1.6907563 C6.62352941,0.820168067 7.4302521,0.0302521008 8.31428571,0.0302521008 L17.2117647,0.0302521008 Z M15.7193277,9.39831933 L3.90420168,9.39831933 C3.10420168,9.39831933 2.45546219,10.0504202 2.45546219,10.8504202 L2.45546219,15.7613445 C2.45546219,16.5613445 3.10420168,17.2134454 3.90420168,17.2134454 L15.7193277,17.2134454 C16.5193277,17.2134454 17.1680672,16.5613445 17.1680672,15.7613445 L17.1680672,10.8504202 C17.1680672,10.0504202 16.5193277,9.39831933 15.7193277,9.39831933 Z M9.42689076,11.0319328 L11.0739496,15.5966387 L9.95798319,15.5966387 L9.57815126,14.4504202 L8.09579832,14.4504202 L7.74285714,15.5966387 L6.74789916,15.5966387 L8.28067227,11.0319328 L9.42689076,11.0319328 Z M12.6605042,11.0319328 L12.6605042,15.5966387 L11.6184874,15.5966387 L11.6184874,11.0319328 L12.6605042,11.0319328 Z M8.82857143,12.1714286 L8.81512605,12.1714286 L8.34117647,13.6941176 L9.32941176,13.6941176 L8.82857143,12.1714286 Z M17.6184874,2.03697479 L17.6184874,4.15462185 C17.6184874,4.94453782 17.8773109,5.61008403 18.3647059,6.08403361 C18.8621849,6.56470588 19.5613445,6.81680672 20.394958,6.81680672 L22.5563025,6.81680672 L17.6184874,2.03697479 Z" id="Documento_Archivo_3Masa"></path>
        </g>
    </g>
</svg>

<svg width="24" height="24" viewBox="0 0 24 24" xmlns="http://www.w3.org/2000/svg"><path d="M17.212.03c.279 0 .538.108.74.3l6.356 6.15c.13.132.208.293.258.465a.735.735 0 01.058.285v14.767c0 .9-.774 1.66-1.691 1.66H8.314c-.9 0-1.69-.776-1.69-1.66l.04-3.328h-2.76A2.913 2.913 0 011 15.758v-4.91a2.913 2.913 0 012.904-2.912h2.72V1.691c0-.87.806-1.66 1.69-1.66h8.898zm-1.493 9.368H3.904c-.8 0-1.449.652-1.449 1.452v4.911c0 .8.65 1.452 1.45 1.452h11.814c.8 0 1.45-.652 1.45-1.452v-4.91c0-.8-.65-1.453-1.45-1.453zm-6.292 1.634l1.647 4.565H9.958l-.38-1.147H8.096l-.353 1.147h-.995l1.533-4.565h1.146zm3.234 0v4.565h-1.043v-4.565h1.043zm-3.832 1.14h-.014l-.474 1.522h.988l-.5-1.523zm8.79-10.135v2.118c0 .79.258 1.455.746 1.929.497.48 1.196.733 2.03.733h2.161l-4.938-4.78z" fill="#5CB615" fill-rule="nonzero"/></svg>
